packages/core/src/svgs/wallets/mono/zerion.svg

<svg width="24" height="24" viewBox="0 0 24 24" fill="none" xmlns="http://www.w3.org/2000/svg">
<path fill-rule="evenodd" clip-rule="evenodd" d="M14.6884 11.5213C11.0249 9.61858 6.56751 7.15117 3.21274 5.14004C2.22291 4.45465 2.72528 3 3.92158 3H20.5209C21.4468 3 22.0663 3.99227 21.6022 4.74313C20.4867 6.59469 18.8583 8.94546 17.4983 10.8093C16.7681 11.8098 15.5781 11.9816 14.6884 11.5213ZM9.34539 12.1391C12.8875 13.9539 17.8516 16.7138 21.3786 18.8007C22.4708 19.4471 22.0343 20.998 20.7615 20.998C18.6785 20.998 15.2936 20.9986 11.9264 20.999C8.59394 20.9996 5.27871 21 3.25956 21C2.24207 21 1.72055 19.9852 2.15266 19.2773C3.61293 16.8856 5.25412 14.4716 6.61859 12.669C7.22525 11.865 8.45987 11.6849 9.34539 12.1391Z" fill="white"/>
</svg>

<svg xmlns="http://www.w3.org/2000/svg" width="24" height="24" fill="none" viewBox="0 0 24 24">
    <path fill="#fff" fill-rule="evenodd" d="M14.688 11.521C11.025 9.62 6.568 7.151 3.213 5.14 2.223 4.455 2.725 3 3.922 3H20.52c.926 0 1.545.992 1.081 1.743-1.115 1.852-2.744 4.202-4.104 6.066-.73 1-1.92 1.173-2.81.712m-5.343.618c3.542 1.815 8.507 4.575 12.034 6.662 1.092.646.655 2.197-.617 2.197l-8.836.001L3.26 21c-1.018 0-1.54-1.015-1.107-1.723 1.46-2.391 3.101-4.805 4.466-6.608.606-.804 1.84-.984 2.726-.53" clip-rule="evenodd"/>
</svg>
